assets/sprites/ui/cursors/cursor-default-black.svg

<?xml version="1.0" encoding="UTF-8" standalone="no"?><!DOCTYPE svg PUBLIC "-//W3C//DTD SVG 1.1//EN" "http://www.w3.org/Graphics/SVG/1.1/DTD/svg11.dtd"><svg width="100%" height="100%" viewBox="0 0 14171 17338" version="1.1" xmlns="http://www.w3.org/2000/svg" xmlns:xlink="http://www.w3.org/1999/xlink" xml:space="preserve" xmlns:serif="http://www.serif.com/" style="fill-rule:evenodd;clip-rule:evenodd;stroke-linejoin:round;stroke-miterlimit:2;"><rect id="Artboard1" x="0" y="0" width="14167.9" height="17335.7" style="fill:none;"/><path d="M6400.27,12452.7c-44.854,20.186 -84.457,62.742 -118.864,127.231c-116.971,218.678 -221.873,434.942 -370.604,720.235c-415.321,796.973 -679.158,1308.31 -791.533,1533.79c-199.492,400.143 -369.776,777.599 -731.762,984.652c-352.664,201.631 -761.641,137.318 -1022.83,-233.638c-194.783,-276.902 -271.456,-618.553 -334.13,-951.454c-223.197,-1185.7 -399.684,-2132.64 -529.297,-2841.06c-135.046,-739.051 -474.936,-2559.66 -1019.22,-5461.45c-415.93,-2217.36 -688.197,-3670.14 -816.607,-4358.38c-36.848,-197.734 -51.486,-393.124 -43.914,-586.168c13.739,-355.944 135.686,-632.622 444.743,-726.34c167.641,-50.638 410.583,-69.043 576.573,2.405c119.35,51.381 219.944,102.661 301.616,154.093c709.96,446.358 4296.8,2694.51 10760.5,6744.47c362.529,227.146 747.215,486.388 801.034,988.121c22.168,206.743 -18.392,395.666 -121.701,566.557c-187.656,310.1 -496.892,461.087 -836.097,532.666c-181.241,38.487 -363.796,69.311 -547.683,92.253c-597.211,74.784 -1000.16,146.791 -1539.33,216.725c-316.324,40.967 -556.076,70.274 -761.877,115.207c-185.184,40.546 -221.839,225.401 -106.732,387.117c524.427,737.401 1211.19,1703.47 2060.12,2898.45c183.115,257.576 287.2,407.034 312.224,448.158c293.927,480.432 401.104,1083.9 196.455,1606.79c-99.244,253.791 -262.798,494.884 -490.665,723.279c-339.394,340.172 -822.593,547.291 -1294.67,559.353c-620.175,15.736 -1183.63,-444.381 -1548.72,-973.321c-405.076,-586.961 -1133.16,-1639.06 -2184.43,-3156.05c-58.489,-84.54 -149.866,-155.548 -242.585,-113.678l0.003,-0.009Z" style="fill:none;fill-rule:nonzero;stroke:#000;stroke-width:1216.1px;"/></svg>

<?xml version="1.0" encoding="UTF-8" standalone="no"?>
<!DOCTYPE svg PUBLIC "-//W3C//DTD SVG 1.1//EN" "http://www.w3.org/Graphics/SVG/1.1/DTD/svg11.dtd">
<svg width="100%" height="100%" viewBox="0 0 817 1000" version="1.1" xmlns="http://www.w3.org/2000/svg" xmlns:xlink="http://www.w3.org/1999/xlink" xml:space="preserve" xmlns:serif="http://www.serif.com/" style="fill-rule:evenodd;clip-rule:evenodd;stroke-linejoin:round;stroke-miterlimit:2;">
    <g id="Artboard1" transform="matrix(0.057653,0,0,0.0576768,0,0)">
        <rect x="0" y="0" width="14167.9" height="17335.7" style="fill:none;"/>
    </g>
    <g transform="matrix(0.057653,0,0,0.0576768,0,0)">
        <path d="M6400.27,12452.7C6355.42,12472.9 6315.81,12515.4 6281.41,12579.9C6164.44,12798.6 6059.53,13014.9 5910.8,13300.2C5495.48,14097.1 5231.64,14608.5 5119.27,14834C4919.78,15234.1 4749.49,15611.6 4387.51,15818.6C4034.84,16020.2 3625.87,15955.9 3364.68,15585C3169.89,15308.1 3093.22,14966.4 3030.55,14633.5C2807.35,13447.8 2630.86,12500.9 2501.25,11792.5C2366.2,11053.4 2026.31,9232.8 1482.03,6331.01C1066.1,4113.65 793.833,2660.87 665.423,1972.63C628.575,1774.89 613.937,1579.5 621.509,1386.46C635.248,1030.51 757.195,753.836 1066.25,660.118C1233.89,609.48 1476.84,591.075 1642.83,662.523C1762.17,713.904 1862.77,765.184 1944.44,816.616C2654.4,1262.97 6241.24,3511.13 12704.9,7561.09C13067.5,7788.23 13452.2,8047.47 13506,8549.21C13528.1,8755.95 13487.6,8944.87 13384.3,9115.76C13196.6,9425.86 12887.4,9576.85 12548.2,9648.43C12366.9,9686.92 12184.4,9717.74 12000.5,9740.68C11403.3,9815.47 11000.3,9887.47 10461.2,9957.41C10144.8,9998.38 9905.09,10027.7 9699.29,10072.6C9514.1,10113.2 9477.45,10298 9592.56,10459.7C10117,11197.1 10803.7,12163.2 11652.7,13358.2C11835.8,13615.8 11939.9,13765.2 11964.9,13806.3C12258.8,14286.8 12366,14890.2 12161.4,15413.1C12062.1,15666.9 11898.6,15908 11670.7,16136.4C11331.3,16476.6 10848.1,16683.7 10376,16695.8C9755.84,16711.5 9192.39,16251.4 8827.3,15722.4C8422.22,15135.5 7694.14,14083.4 6642.87,12566.4C6584.38,12481.9 6493,12410.8 6400.28,12452.7L6400.29,12452.7L6400.27,12452.7Z" style="fill:none;fill-rule:nonzero;stroke:black;stroke-width:1216.1px;"/>
    </g>
</svg>
